X:1
T:Title
%%score 1 2 3
L:1/8
M:6/4
K:C
V:1 treble nm="Part_1"
V:2 treble-8 nm="Part_2"
V:3 treble-8 nm="Part_3"
V:1
 c6 B4 A2 | G4 AB c2 B2 cA | c2 z2 A2 B2 d4 | c2 B4 A2 G2 AG | A6 z2 z2 A2 | B4 A2 G2 c4 | %6
 B2 A4 G2 F2 GE | G6 z2 z2 C2 | E4 F2 G2 c4 | B2 A4 G2 F2 GE | G2 z2 B2 c4 B2 | A2 B4 A2 G3 F | %12
 A6 z2 z2 A2 | G4 A2 c2 B2 cd | e4 d2 c2 B2 cA |[M:4/2] c16 |] %16
V:2
[K:F] c6 e4 f2 | g4 f2 e2 d4 | c4 c2 G4 G2 | d4 c4 B4 | A12 | G12 | G6 A6 | G12 | c12 | G4 B4 A4 | %10
 G6 A6 | d4 c4 B4 | A12 | B6 G6 | c4 e4 d4 |[M:4/2] c16 |] %16
V:3
[K:F] g6- g4 e2 | d2 G4 c2 G4 | e4 e2 d2 z2 d2 | G4 A2 c2 d4 | e4 g2 f4 e2 | g4 f2 e2 d4 | %6
 z2 B2 d2 c6 | d12 | A8 e4 | d4 B2 G2 c4 | d6 z2 z2 c2 | f4 e2 e2 d4 | e12 | z2 e4 d4 d2 | %14
 A4 c2 c2 G4 |[M:4/2] g16 |] %16

